X:58
T:Pollonesse 1832-58
O:Södermanland
R:Slängpolska
B:Notbok 1832 från Sörmlands museum
N:[[http://www.sormlandsmusikarkiv.se/noter/1832/1832.html]]
M: 3/4
L: 1/16
K: C
|:c2>e2 e2>g2 g2>f2 | efed d2cd e2c2 | c2>e2 e2>g2 g2>e2 | efed d4 c4 :|
|:c2c2 egec egec | G2G2 BdBG BdBG | c2c2 egec egec | 
G2G2 BdBG BdBG |c2cd e2ef g2ga | gfed d4 c4:|

